X:39
T: De Malbrough, S. 74
N: R0063
O: Luxemburg
S: D'Fraen um Kanddaaf an der aler Zeit, Luxemburg 1929]
R: Kriegslied, historisches Lied]
M: 2/4
L: 1/16
K: G
B2 | B2B2(3B2A2B2 | c4B4 |
AAAAAAGA | B2A2G2
B2 | B2B2(3B2A2B2 | c4B2
d2 | B2G2A2A2 | G4z2
B2 | d2d2e2e2 | d4z2
B2 | d2d2e2e2 | d4z2

@@@ Tune index: 8093
